!!!COM: Robert Franz
!!!CNT: Deutscher
!!!TXO: Deutsche 
!!!OTL: Aus meinen grossen Schmerzen.
!!!OPS: Op. 5
!!!ONM: No. 1
!!!ONB: Original key: Original key
!!!LYR: H. Heine
!!!ENC: Brian Bice
!!!YOR: Vocal Album, G. Schirmer, Inc., 1907
!!!ODT: 1846
!!NB: Vocal melody and text only encoded.
**kern	**silbe
*clefG2	*
*k[b-]	*
*M2/4	*
*MM[andante]	*
=1	=1
{8a	{Aus
16g#	mei-
16a	-nen
8cc	gro-
8b-	-ssen
=2	=2
4a	Schmer-
8gn}	-zen}
8r	.
=3	=3
{8f	{mach'
16e	ich
16f	die
8a	klei-
8g	-nen
=4	=4
4f	Lie-
8e}	-der}
16r	.
{16a	{die
=5	=5
8cc	he-
16b-	-ben
16a	ihr
8dd	klin-
16cc	-gend
16b-	Ge-
=6	=6
4a	-fie-
8g#}	-der}
16r	.
{16bn	{und
=7	=7
8ee	flat-
16cc#	-tern
16a	nach
(8cc#	ih-
16bn)	|
16a	-rem
=8	=8
(4a	Her-
4bn)	|
=9	=9
4a}	-zen.}
8.r	.
{16a	{Sie
=10	=10
8g#	fan-
16a	-den
16a	den
8cc	Weg
8b-	zur
=11	=11
4a	Trau-
8gn}	-ten,}
16r	.
{16gn	{doch
=12	=12
8f	kom-
16e	-men
16f	sie
8a	wie-
16g	-der
16g	und
=13	=13
(4f	kla-
8e)}	-gen,}
16r	.
{16a	{und
=14	=14
8ee-	kla-
16dd	-gen,
16cc	und
8b-	wol-
16a	-len
16g	nicht
=15	=15
(8b-	sa-
16a	|
16g)	|
8f}	-gen,}
{8e	{was
=16	=16
(8d	sie
16c#)	|
16d	im
8f	Her-
8e	-zen
=17	=17
(4d	schau-
4e)	|
=18	=18
4d}	-ten.}
4r	.
*-	*-
